/* XPM */
static char *c5efa892211f4cca8fa9313bb1d61c2bSojUALISh2CmT7Be[] = {
/* columns rows colors chars-per-pixel */
"40 44 135 2 ",
"   c None",
".  c #7A3E00",
"X  c #D97400",
"o  c #FC9001",
"O  c #FF9B01",
"+  c #FF9E01",
"@  c #FFA001",
"#  c #FFA101",
"$  c #FFA701",
"%  c #FFA501",
"&  c #120300",
"*  c #FFAB01",
"=  c #E17D00",
"-  c #E77C00",
";  c #934D00",
":  c #9A5000",
">  c #FF9901",
",  c #E67B00",
"<  c #D17000",
"1  c #B86200",
"2  c #9D5200",
"3  c #AA5900",
"4  c #B66100",
"5  c #D77300",
"6  c #BC6400",
"7  c #DF7800",
"8  c #CB6D00",
"9  c #9F5400",
"0  c #D97600",
"q  c #C96C00",
"w  c #CD6E00",
"e  c #924C00",
"r  c #ED7F00",
"t  c #A35500",
"y  c #7F4000",
"u  c #964E00",
"i  c #B96200",
"p  c #C26800",
"a  c #864500",
"s  c #B05D00",
"d  c #B45F00",
"f  c #854500",
"g  c #8D4900",
"h  c #EC7F01",
"j  c #C86B00",
"k  c #B46000",
"l  c #E27A00",
"z  c #FC8D01",
"x  c #FF9301",
"c  c #FF9501",
"v  c #FF9401",
"b  c #FF9401",
"n  c #F58D01",
"m  c #DD7B00",
"M  c #8E4900",
"N  c #DB7600",
"B  c #F38C01",
"V  c #B35E00",
"C  c #F59101",
"Z  c #D26F00",
"A  c #924B00",
"S  c #C86B00",
"D  c #E97F00",
"F  c black",
"G  c #A95900",
"H  c #DF7901",
"J  c #E68101",
"K  c #AF5A00",
"L  c #D97400",
"P  c None",
"I  c #E98901",
"U  c #B75F00",
"Y  c #DD7700",
"T  c #EE8201",
"R  c #EA8701",
"E  c #BE6200",
"W  c #753D00",
"Q  c #AD5C00",
"!  c #E58000",
"~  c #C76A00",
"^  c #874600",
"/  c #A15500",
"(  c #C66900",
")  c #914C00",
"_  c #9A5000",
"`  c #AF5C00",
"'  c #DE7900",
"]  c #F98F01",
"[  c #E37F00",
"{  c #CF6E00",
"}  c #C56900",
"|  c #B25E00",
" . c #7C4000",
".. c #8A4800",
"X. c #904A00",
"o. c #B15D00",
"O. c #EB7D01",
"+. c #C36700",
"@. c #B96200",
"#. c #B05E00",
"$. c #FF9001",
"%. c #FF9A01",
"&. c #FF9C01",
"*. c #FF9D01",
"=. c #FF9E01",
"-. c #FFA001",
";. c #FD9C01",
":. c #EF8301",
">. c #FF9101",
",. c #FF9901",
"<. c #FF9F01",
"1. c #FFA101",
"2. c #FFA301",
"3. c #FFA701",
"4. c #FFA501",
"5. c #FC8C01",
"6. c #FF9401",
"7. c #FFA201",
"8. c #FFA801",
"9. c #FC9B01",
"0. c #FF9301",
"q. c #FF9601",
"w. c #FF9701",
"e. c #FFA601",
"r. c #FFA401",
"t. c #FF9501",
"y. c #D87500",
"u. c #FB8D01",
"i. c #FA9701",
"p. c #C46900",
"a. c #EE8401",
"s. c #FE9E01",
"d. c #F28D01",
"f. c #DB7600",
"g. c white",
/* pixels */
"                                                                                ",
"                                                                                ",
"                                                                                ",
"                                                                                ",
"                                                                                ",
"                                                                                ",
"                                                                                ",
"                                                                                ",
"                                                                                ",
"                                                                                ",
"                                                                                ",
"                                                                                ",
"                                                                                ",
"                                                                                ",
"                                                                                ",
"                                                                                ",
"                                                                                ",
"                                                                                ",
"                                                                                ",
"                                                                                ",
"                                                                                ",
"                                                                                ",
"                                                                                ",
"                                                                                ",
"                                                                                ",
"                                                                                ",
"                                                                                ",
"                            .   X o O + @ @ # $ # %                             ",
"                            & * l z x c v v b n m = -                           ",
"                          ; : M N $.%.&.*.=.-.;.B >                             ",
"                            , V :.>.,.<.1.2.3.4.C Z < 1                         ",
"                          2 A S 5.>.6.%.7.3.8.8.9.D F 1                         ",
"                          3 G H $.0.q.w.7.3.8.8.2.J K 4                         ",
"                          5 L P >.q.q.w.1.4.e.3.r.I U 6                         ",
"                          7 Y T $.t.q.w.7.4.4.r.;.R E 8                         ",
"                          9 W Q y.u.6.q.-.r.2.i.! ~ 0 q                         ",
"                          w e ^ / p.a.>.*.s.d.f.( r t                           ",
"                            y u ) _ ` ' ] [ { } | i p                           ",
"                            e a  ...X.o.O.+.@.#.s d                             ",
"                              a f g u 1 h j 6 k 1                               ",
"                                                                                ",
"                                                                                ",
"                                                                                ",
"                                                                                "
};
