/* XPM */
static char *ec114a590d7947bdbaff2820a025fddeqhjUdrBduO9zQxfx[] = {
/* columns rows colors chars-per-pixel */
"30 44 166 2 ",
"   c None",
".  c #481000",
"X  c #541300",
"o  c #5C1700",
"O  c #5D1A03",
"+  c #651A00",
"@  c #6E1C00",
"#  c #751D00",
"$  c #7A1D00",
"%  c #652106",
"&  c #65270B",
"*  c #6A2409",
"=  c #712004",
"-  c #7D2001",
";  c #672E13",
":  c #6F2910",
">  c #673F1F",
",  c #6C3D1D",
"<  c #703414",
"1  c #7D3416",
"2  c #7E3815",
"3  c #743119",
"4  c #7A3219",
"5  c #763A19",
"6  c #793C1C",
"7  c #6E3726",
"8  c #623E2B",
"9  c #374D33",
"0  c #3A4D33",
"q  c #3D5236",
"w  c #3F5438",
"e  c #4D452D",
"r  c #444A2E",
"t  c #564427",
"y  c #54442C",
"u  c #5C432E",
"i  c #454B30",
"p  c #4A4C32",
"a  c #544731",
"s  c #5A4631",
"d  c #5D4B31",
"f  c #475033",
"g  c #4B5335",
"h  c #405639",
"j  c #4E5738",
"k  c #445B3D",
"l  c #4D5838",
"z  c #555535",
"x  c #585332",
"c  c #6F4725",
"v  c #6F4825",
"b  c #6B492B",
"n  c #724423",
"m  c #7E4D2B",
"M  c #694732",
"N  c #754532",
"B  c #7F4432",
"V  c #811E00",
"C  c #872000",
"Z  c #8B2100",
"A  c #8A2806",
"S  c #8B2E0A",
"D  c #832A0D",
"F  c #912300",
"G  c #9C2501",
"H  c #972B06",
"J  c #9B2C06",
"K  c #922F0A",
"L  c #982F09",
"P  c #8C340F",
"I  c #95340E",
"U  c #9E330D",
"Y  c #823414",
"T  c #853419",
"R  c #8C3519",
"E  c #823E1A",
"W  c #983719",
"Q  c #933C1D",
"!  c #9D3A1A",
"~  c #A32600",
"^  c #AA2700",
"/  c #A52B04",
"(  c #AD2800",
")  c #AA2F09",
"_  c #B02E07",
"`  c #B02F08",
"'  c #AF3006",
"]  c #AC340C",
"[  c #AE380C",
"{  c #B03107",
"}  c #B1330B",
"|  c #B33C0F",
" . c #A33614",
".. c #AA3813",
"X. c #A53A19",
"o. c #AC3D1A",
"O. c #AB3512",
"+. c #B23611",
"@. c #B43A15",
"#. c #B53D19",
"$. c #993125",
"%. c #A1392C",
"&. c #AE3B2F",
"*. c #BD322A",
"=. c #AA3D31",
"-. c #C3372E",
";. c #87411F",
":. c #8B461E",
">. c #904319",
",. c #9A431B",
"<. c #94481C",
"1. c #9D4C1E",
"2. c #A34A1C",
"3. c #B34214",
"4. c #BC4917",
"5. c #B7451F",
"6. c #B64B1C",
"7. c #B7501D",
"8. c #904121",
"9. c #984724",
"0. c #944925",
"q. c #874131",
"w. c #8F4031",
"e. c #924232",
"r. c #9E5B31",
"t. c #A04320",
"y. c #A14C23",
"u. c #B64922",
"i. c #B94A22",
"p. c #BA4F26",
"a. c #AE5B27",
"s. c #A0532A",
"d. c #AB5C28",
"f. c #AA5423",
"g. c #B75421",
"h. c #BB5124",
"j. c #B7582D",
"k. c #BB592E",
"l. c #BA532A",
"z. c #BE642B",
"x. c #AB673A",
"c. c #B86B3C",
"v. c #B2723D",
"b. c #C15429",
"n. c #C35B2E",
"m. c #D34037",
"M. c #E14139",
"N. c #C8662B",
"B. c #C16333",
"V. c #C56F3D",
"C. c #CF6D3A",
"Z. c #CA7839",
"A. c #D27A3A",
"S. c #DB7B39",
"D. c #B87D49",
"F. c #C47240",
"G. c #CE7C46",
"H. c #D37640",
"J. c #DC833F",
"K. c #CF824A",
"L. c #DF8C4F",
"P. c #D2834B",
"I. c #DE8E51",
"U. c #E28741",
"Y. c #E28F50",
"T. c #E39153",
/* pixels */
"                      0 0 0 0 0 0 0 0                       ",
"                  0 0 0 0 i s i 0 0 0 w h                   ",
"              0 0 0 0 0 0 e.m.%.i 0 0 0 w h k               ",
"          0 0 0 0 B w.i 0 &.M.*.e 0 N q.i w k k k           ",
"        0 0 0 0 0 =.-.e 0 8 $.7 0 0 =.-.e 0 w k k k         ",
"        0 0 d B 0 e y 0 0 9 0 9 0 0 y u 0 M N h k k k       ",
"      0 0 0 p u 0 q q f d b n n > t r 9 0 a u 0 h k k       ",
"    0 0 0 0 0 q h z m t.o.o.X. .~ ~ L 5 e 0 0 0 w k k k     ",
"    0 0 0 0 h k c U  .R 4 3 3 3 : @ V G J , 0 0 0 h k k     ",
"  0 0 0 w h k E ~ $ * 4 R W ! ! W D @ + $ ~ 2 i 0 w k k k   ",
"  0 0 0 h k E G @ @ Z O.#.#.#.#.#.#.) Z @ @ G 2 0 0 w k k   ",
"0 0 0 h k n G @ # G ( ) @.#.#.#.#.#.@._ ~ # @ G , 0 0 h k k ",
"0 0 0 k x J # # ~ ( ( ( } #.#.#.#.#.#.@.) ~ # # J y 0 w k k ",
"0 0 w k E C @ ~ ( ( ( ( ( +.#.#.#.#.#.#.+.( ~ @ C Y 0 0 k k ",
"0 0 h z H @ F ( ( ( ( ( } 6.u.5.j.l.#.#.#.} ( F @ H e 0 h k ",
"0 0 k v Z # ^ ( ( ( ( { f.< ;.0.; r.p.#.#.#.} ^ # C , 0 h k ",
"0 0 k E $ C ( ( ( ( ( | :.. o O X 6 k.#.#.#.@._ Z $ Y 0 h k ",
"0 w k P # G ( ( ( ( ( ) 2.& o o * s.i.#.#.#.#.@.G # S i w k ",
"0 w j S # ~ ( ( ( ( ( ( { 2.& % s.i.#.#.#.#.#.#.] # S r w k ",
"0 w j S # ^ ( ( ( ( ( ( ( { 2.1.3.#.#.#.#.#.#.#.@.# A r w k ",
"0 w j S $ ^ ( ( ( ( ( ( ( ( { } ( @.#.#.#.#.#.b.n.y.,.i w k ",
"0 w j S $ ^ ( ( ( ( ( ( ( ( ( ( ( } #.#.#.#.n.L.T.Y.v.f w k ",
"0 w j S $ ^ ( ( ( ( ( ( ( ( ( ( ( ( @.#.#.#.h.G.P.K.v.f w k ",
"0 w j S $ ^ ( ( ( ( ( ( ( ( ( ( ( ( } #.#.#.#.5.u.8.9.i w k ",
"0 w j S $ ^ ( ( ( ( ( ( ( ( ( ( ( ( ) #.#.#.#.#.#.T Q i w k ",
"0 w j S $ ^ } } ( ( ( ( ( ( ( ( ( ( ( +.#.#.#.#.#.T Q i w k ",
"0 w j S # 4.S.A.6.( ( ( ( ( ( ( ( ( ( } #.#.#.#.#.T Q i w k ",
"0 w j S $ N.U.J.z.( ( ( ( ( ( ( ( ( ( ( @.#.#.#.#.T Q i w k ",
"0 w j S $ 7.A.Z.g.( ( ( ( ( ( ( ( ( ( ( +.#.#.#.#.T Q i w k ",
"0 w j S $ / 3.3.) ( ( ( ( ( ( ( ( ( ( ( ` #.#.#.#.T Q i w k ",
"0 w j S $ ) 3.3.( ( ( ( ( ( ( ( ( ( ( ( ( @.#.#.#.T Q i w k ",
"0 w j S $ [ <.1.} ( ( ( ( ( ( ( ( ( ( ( ( } #.#.#.T Q i h k ",
"0 w j S $ [ >.<.} ( ( ( ( ( ( ( ( ( ( ( ( ` #.#.#.T Q i h k ",
"0 w j S $ [ d.a.{ ( ( ( ( ( ( ( ( ( ( ( ( ( @.#.#.T Q p h k ",
"0 q j S $ ) @.| ( ( ( ( ( ( ( ( ( ( ( ( ( ( +.#.#.T Q p h k ",
"0 0 j S $ ^ ( ( ( ( ( ( ( ( ( ( ( ( ( ( ( ( @.C.H.F.x.f h k ",
"0 0 j S $ ^ ( ( ( ( ( ( ( ( ( ( ( ( ( ( ( ( h.I.T.T.D.g k k ",
"0 0 j S $ ^ ( ( ( ( ( ( ( ( ( ( ( ( ( ( ( ( } B.V.c.x.f k k ",
"0 0 j S $ ^ ( ( ( ( ( ( ( ( ( ( ( ( ( ( ( ( ( +.#.T Q p k k ",
"0 0 j S $ ^ ( ( ( ( ( ( ( ( ( ( ( ( ( ( ( ( ( } #.T Q f k k ",
"0 0 g S # ~ ^ ^ ^ ^ ^ ^ ^ ^ ^ ^ ^ ^ ^ ^ ^ ^ ^ ) o.T Q f k k ",
"0 0 f S @ @ # @ @ @ @ @ @ @ @ @ # # @ @ @ @ @ = 4 3 Q g k k ",
"0 0 f K V $ $ $ $ $ $ $ $ $ $ $ $ $ $ $ $ $ $ - Y R ! g k k ",
"0 0 f I / / / / / / / / / / / / / / / / / / / / ..o.,.g k k "
};
