/* XPM */
static char *_1c2c7b537514cefdb199b8d89a3f8c0myRh6fi6TJvlOOFZ[] = {
/* columns rows colors chars-per-pixel */
"40 44 169 2 ",
"   c None",
".  c #0B0E1E",
"X  c #0C0B10",
"o  c #1C141B",
"O  c #210E11",
"+  c #2B1216",
"@  c #24181A",
"#  c #341C1C",
"$  c #391D1E",
"%  c #0D1226",
"&  c #0F162A",
"*  c #12172B",
"=  c #16192C",
"-  c #151B32",
";  c #251C25",
":  c #1D202C",
">  c #2E282B",
",  c #3E2221",
"<  c #3F2828",
"1  c #2A2A3A",
"2  c #272633",
"3  c #302F3D",
"4  c #50221B",
"5  c #432624",
"6  c #452925",
"7  c #492D25",
"8  c #4C2D29",
"9  c #502C29",
"0  c #4D312B",
"q  c #55322D",
"w  c #59352F",
"e  c #463E3B",
"r  c #413833",
"t  c #553630",
"y  c #5B3731",
"u  c #5E3932",
"i  c #653F2B",
"p  c #703729",
"a  c #643D35",
"s  c #683F38",
"d  c #58452C",
"f  c #5D4D3D",
"g  c #52463C",
"h  c #6C5526",
"j  c #6C423A",
"k  c #71463D",
"l  c #74483F",
"z  c #6C583C",
"x  c #725737",
"c  c #666335",
"v  c #3F5765",
"b  c #484147",
"n  c #5F5145",
"m  c #43545A",
"M  c #764A40",
"N  c #7B4D43",
"B  c #65594E",
"V  c #7F5045",
"C  c #785D42",
"Z  c #655955",
"A  c #796143",
"S  c #7B6957",
"D  c #893F17",
"F  c #953E1D",
"G  c #954419",
"H  c #984519",
"J  c #914217",
"K  c #8D422B",
"L  c #9B492D",
"P  c #9D612C",
"I  c #8A743A",
"U  c #D44B13",
"Y  c #E45115",
"T  c #EE5516",
"R  c #EB5619",
"E  c #F15616",
"W  c #FD5D19",
"Q  c #F45918",
"!  c #FE621B",
"~  c #FF691D",
"^  c #805045",
"/  c #876849",
"(  c #8A744E",
")  c #92754F",
"_  c #8C6A51",
"`  c #997D50",
"'  c #967856",
"]  c #AC654F",
"[  c #8C6B71",
"{  c #AD7A74",
"}  c #9F8B3E",
"|  c #DDA83E",
" . c #A69241",
".. c #A99441",
"X. c #A3855B",
"o. c #AB8D5F",
"O. c #9D866E",
"+. c #968266",
"@. c #AB8C66",
"#. c #AE8E68",
"$. c #A58966",
"%. c #B08F60",
"&. c #B69464",
"*. c #B89566",
"=. c #B5956C",
"-. c #BA9A6C",
";. c #B6986E",
":. c #BD9E72",
">. c #B39A7A",
",. c #C09F73",
"<. c #C4A375",
"1. c #CBAB7B",
"2. c #D0AF7F",
"3. c #C5C34C",
"4. c #FDCB44",
"5. c #FFD348",
"6. c #FFD147",
"7. c #FFFF5B",
"8. c #FCFB57",
"9. c #4D7396",
"0. c #547C9F",
"q. c #76A7D6",
"w. c #A6A5A3",
"e. c #B7B5B4",
"r. c #CDAE85",
"t. c #CCB48B",
"y. c #D4B281",
"u. c #D8B584",
"i. c #D3B68A",
"p. c #DCBB8A",
"a. c #DAB887",
"s. c #D4BB90",
"d. c #E2BE8C",
"f. c #C6BFBE",
"g. c #DEC697",
"h. c #E6C28F",
"j. c #E7C391",
"k. c #EBC692",
"l. c #ECCA95",
"z. c #EECD98",
"x. c #F3CE98",
"c. c #EED29D",
"v. c #F5D29C",
"b. c #F9D49E",
"n. c #F6DBA4",
"m. c #FEDEA5",
"M. c #FDDBA2",
"N. c #FFE2A9",
"B. c #FFE4AB",
"V. c #FFE6AB",
"C. c #FFE7AD",
"Z. c #FBE3AA",
"A. c #FFE9AE",
"S. c #FFE0A7",
"D. c #FFEBB0",
"F. c #FFECB1",
"G. c #86A9CB",
"H. c #96ABC1",
"J. c #C3C3C4",
"K. c #D7D6D5",
"L. c #DCDBDB",
"P. c #E1DFDE",
"I. c #E2E0DF",
"U. c #D6E1ED",
"Y. c #EAE8E7",
"T. c #E0EBF6",
"R. c #F3F2F2",
"E. c #FEFEFE",
"W. c #F7F9FD",
/* pixels */
"                                                                                ",
"                                                                                ",
"                                                                                ",
"                                                                                ",
"                                                                                ",
"                                                                                ",
"                                                                                ",
"                                                                                ",
"                                                                                ",
"                              6 6 6 6 7 8 8 q 0 8 8                             ",
"                          8 q q q q w w y y u u y u u y                         ",
"                      8 q y u u a a a a a a a a a a a s a                       ",
"                    $ 8 u a s s j j j j j j j j k k k k j a                     ",
"                    , q a j j k k k k k k k l M M M M M M j a                   ",
"                  + , y a j k k l M M M N N N N N N N N N l a                   ",
"                  + $ y j k k M M N N N N V V ^ ^ ^ ^ ^ N l a                   ",
"                  + # q j j k l M N N N N V ^ ^ ^ ^ ^ N N k a w                 ",
"                  + # 8 a s j j k l M M N N N N N N N N M j a y                 ",
"                  + # 5 w y a a a s j j j k k k k k k k j a a q                 ",
"                O + $ $ 6 8 q w y u u a a a a a a a a a a y u q                 ",
"                  + $ 7 z / ' X.@.@.@.@.#.@.#.#.#.#.$.' C u u q                 ",
"                  C 7 A -.d.x.M.m.S.N.B.B.B.B.B.B.C.N.M.h._ / <.                ",
"                :.1.x ) 1.k.j.r.i.n.A.D.F.F.A.c.t.g.Z.F.m.=.r.N.                ",
"                -.d.,.X.1.j.S 2 3 >.C.D.F.F.n.B 1 b g.F.B.v.Z.Z.                ",
"                =.d.u.X.<.d.n & - O.N.A.D.D.c.e - 1 s.D.N.m.A.m.                ",
"                  1.<.` <.p.n % = O.m.C.A.A.c.e * 1 i.A.m.v.v.l.                ",
"                      / -.u.f . * +.M.N.C.B.z.r % 2 i.N.v.y.                    ",
"                      h ` 1.A @ > #.b.M.M.M.l.f ; g p.b.a.                      ",
"                        x o.-.@.;.u.h.k.k.k.h.1.;.2.h.y.:.                      ",
"                          z ( X.o.%.&.&.&.*.*.*.-.=.$.+.                        ",
"                          v m i D J G G G G H H G Z 0.G.                        ",
"                      w.J.H.9.K U Y T E E E E Q T [ q.T.Y.                      ",
"                      K.E.W.H.L Y Q W W ! ! ! ! W { U.E.E.R.                    ",
"                      P.E.W.f.F U Q ! ~ ~ ~ ! ! R ] L.E.E.R.                    ",
"                      e.K.I.  + 4 P 4.6.5.5.| p 9 ;   L.Y.                      ",
"                              X . c 8.7.7.7.3.: =                               ",
"                                # d }  . ...I 8 <                               ",
"                                # 5 6 7 6 6 8 8                                 ",
"                                , t t 0   6 t y                                 ",
"                                o ; ;     @ ; ;                                 ",
"                                                                                ",
"                                                                                ",
"                                                                                ",
"                                                                                "
};
