/* XPM */
static char *_ff39e0b2c3141f686554df652728ff0dZCDD9zQko1a5hUq[] = {
/* columns rows colors chars-per-pixel */
"40 40 18 1 ",
"  c #1A1919",
". c #1F1F1E",
"X c #201F1E",
"o c #1F201F",
"O c #20201F",
"+ c #2A2928",
"@ c #40403F",
"# c #4F4E4B",
"$ c #575755",
"% c #5A5B56",
"& c #5E5F59",
"* c #74736F",
"= c #73746E",
"- c #74746E",
"; c #797A78",
": c #85857E",
"> c #A9A99E",
", c white",
/* pixels */
">>>>>>>>>>>>>>>>>>>>>>>>>>>>>>>>>>>>>>>>>>>>>>>>>>>>>>>>>>>>>>>>>>>>>",
">>>>>>>>>>>>>>>>>>>>>>>>>>>>>>>>>>>>>>>>>>>>>>>>>>>>>>>>>>>>>>>>>>>>>",
":@@@@@@@@@@@@@@@@@@@@@@@@@@@@@@@@@@@@@@@@@@@@@@@@@@@@@@@@@@@@@@@@@@::",
":@@@@&&&&&&&&&&&%%&&&&@@@@@@@&&&&&&&&&&&&&&&&&&&&&&&&&%%&&@@&&@@@@@::",
":@@@@&&&&&&&&&@@&&&&&&&&@@@@&&&&&&&&&&&&&&&&&&&&&&&&&&&&&&@@&&&&&@@::",
":@@@@&&&&&&&&&@@&&&&&&&&@@@@&&&&&&&&&&&&&&&&&&&&&&&&&&&&&&@@&&&&&@@::",
":@@&&&&&&&&&&&&&&&&&&&&&&&&&&&&&&&&&&&&&&&&&&&&&&&&&&&&&&&&&&&&@@@@::",
":@@&&&&&&&&&&&&&&&&&&&&&&&&&&&&&&&&&&&&&&&&&&&&&&&&&&&&&&&&&&&&&&@@::",
":@@&&&&&&&&&&&&&&&&&&&&&&&&&&&&&&&&&&&&&&&&&&&&&&&&&&&&&&&&&&&&&&@@::",
":@@&&&&@@&&&&&&&&&&&&&&&&&&&&&&&&&&&&@@&&&&&&&&&&&&&@@&&&&&&&&&&&@@::",
":@@&&&&&&&&&&&&&&&&&&&&&&&&&&&&&&&&&&&&&&&&&&&&&&&&&&&&&,,##&&&@@@@::",
":@@&&&&##&&&&&&&&&&&,,&&&&&&&&&&&&&&&&&&&&&&&&&&&&&&&&&&&&&&&&&&&@@::",
":@@&&&&##&&&&&&&&&&&,,&&&&&&&&&&&&&&&&&&&&&&&&&&&&&&&&&&&&&&&&&&&@@::",
":@@&&&&##&&#&&&&&&&&,,&&&&&&&&&&&&&&&&&&&&&&&&&&&&&&&&&&&&&&&&&&&@@::",
":@@&&&&&&&&&@@&&&&&&&&&&&&&&&&&&&&&&&&&&&&&&&&&&&&&&&&&&&&&&&&&&&@@::",
":@@&&&&&&&&&@@&&&&&&&&&&&&&&&&&&&&&&&&&&&&&&&&&&&&&&&&&&&&&&&&&&&@@::",
":@@&&&&&&&&&&&&&&&&&&&&&&&&&&&&&&&&&&&&&&&&&&&&&&&&&&&&&&&&&&&&&&@@::",
":@@&&&&&&&&&&&&&&&&&&&&&&&&&&&&&&&&&&&&&&&&&&&&&&&&&&&&&&&&&&&&&&@@::",
":@@&&&&&&&&&&&&&&&&&&&&&&&&&&&&&&$$$$&&&&&&&&,,,&&&&&&&&&&&&&&&&&@@::",
":@@&&&&&&&&&&&&&&&&&&&&&&&&&&&&&&$$$$&&&&&&&&,,,&&&&&&&&&&&&&&&&&@@::",
":@@&&&&&&&&&&&&&&&&&&&&&&&&&&&&&&&&&&&&&&&&&&&@@&&&&&&&&&&&&&&&&&@@::",
":@@&&&&&&&&&&&&&&&&&&&&&&&&&&&&&&&&&&&&&&&&&&$&&&&&&@@&&&&&&&&&&&@@::",
":@@&&&&&&&&&&&&&&&&&&&&&&&&&&&&&&&&&&&&&&&&&&$&&&&&&@@&&&&&&&&&&&@@::",
":@@&&&&&&&&&&&&&&&&&&&&&&&&&&&&&&&&&&&&&&&&&&&&&$$&&&&&&&&&&&&&&&@@::",
":@@&&&&&&&&@&&&&&&&&&&&&&&&&&&&&&&&&&&&&&&&&&&&&&&&&&&&&&&&&&&&&&@@::",
":@@&&&&&&&&&&&&&&&&&&&&&&&@@&&&&&&&&&&&&&&&&&&&&&&&&&&&&&&&&&&&&&@@::",
":@@&&&&&&&&&&&&&&&&&&&&&&&@@&&&&&&&&&&&&&&&&&&&&&&&&&&&&&&&&&&&&&@@::",
":@@&&&&&&&&&&&&&&&&&&&&&&&&&&&&&&&&&&&&&&&&&&@&&&&&&&&&&&&&&&&&&&@@::",
":@@&&&&&&&&&&&&&&&&&&&@@&&&&&&&&&&&&&&&@@&&&&&&&&&&&&&&&&&&&&&&&&@@::",
":@@&&&&&&&&&&&&&&&&&&&@@&&&&&&&&&&&&&&&@@&&&&&&&&&&&&&&&&&&&&&&&&@@::",
":@@&&&&&&&&&&&&&&&&&&&&&&&&&&&&&&&&&&&&&&&&&&&&&&&&&&&&&&&&&&&&&&@@::",
":@@&&&&&&&&&&&&&&&&&&&&&&&&&&&&&&&&&&&&&&&&&&&&&&&&&&&&&&&&&&&@&&@@::",
":@@&&&&&&&&&&&&&&&&&&&&&&&&&&&&&&&&&&&&&&&&&&&&&&&&&&&&&&&,,&&&&&@@::",
":@@&&&&&&&&&&&&&&&&&&&&&&&&&&&&&&&&&&&&&&&&&&&&&&&&&&&&&&&,,&&&&&@@::",
":@@&&&&&&&&&&&&&&&&&&&&&&&&&&&&&&&&&&&&&&&&&&&&&&&&&&&&&&&&&&&&&&@@::",
":@@&&&&&&&&&&&,,&&&&&&&&&&&&&&&&&&&&&&&&&&&&&&&&&&&&&&&&&&&&&&&&&@@::",
":@@&&&&&&&&&&&,,&&&&&&&&&&&&&&&&&&&&&&&&&&&&&&&&&&&&&&&&&&&&&&&&&@@::",
":@@&&&&&&&&&&&&&&&&&&&&&&&&&&&&&&,,&&&&&&&&&&&&&&&&&&&&&&&&&&&&&&@@::",
":@@&&&&&&&&&&&&&&&&&&&&&&&&&&&&&&&&&&&&&&&&&&&&&&&&&&&&&&&&&&&&&&@@::",
":@@&&&&&&&&@&&&&&&&&&&&&&&&&&@@&&&&&&&&&&&&&&&&&&&&&&&&&&&&&&&&&&@@::",
":@@&&&&&&&&@&&&&&&&&&&&&&&&&&@@&&&&&&&&&&&&&&&&&&&&&&&&&&&&&&&&&&@@::",
":@@&&&&&&&&&&&&&&&&&&&&&&&&&&&&&&&&&&&&&&&&&&&&&&&&&&&&&@@&&&&&&&@@::",
":@@&&&&&&&&&&&&&&&&&&&&&&&&&&&&&&&&&&&&&&&&&&&&&&&&&&&&&@@,,&&&&&@@::",
":@@&&&&&&&&&&&&&&&&&&&&&&&&&&&&&&&&&&&&&&&&&&&&&&&&&&&&&@@,,&&&&&@@::",
":@@&&&&&&&&&&&&&&&&&&&&&&&&&&&&&&&&&&&&&&&&&&&&&&&&&&&&&&&&&&&&&&@@::",
":@@&&&&&&&&&&&&&&&&&&&&&&&&&@&&&&&&&&&&&&&&&&&&&&&&&&&&&&&&&&&&@@@@::",
":@@&&@@&&&&&&&&&&&@@@@&&&&&&&&&&&@@@@&&,,&&&&&&&&&%%%%&&&&&&&&&@@@@::",
":@@&&@@&&&&&&&&&&&@@@@&&&&&&&&&&&@@@@&&,,&&&&&&&&&%%%%&&&&&&&&&@@@@::",
":@@&&&&@@@@@@@@@@@@@%%%%%%%%%@@@@@@@@@@@@@@@@@@@@@&&&&&&&&&&&&@@@@@::",
":@@@@@@@@@@@@@@@@@@@@@@@@@@@@@@@@@@@@@@@@@@@@@@@@@@@@@@@@@@@@@@@@@@::",
":@@@@@@@@@@@@@@@@@@@@@@@@@@@@@@@@@@@@@@@@@@@@@@@@@@@@@@@@@@@@@@@@@@::",
"*=*=*=--*=*=*=--*=*=*=--*=*=*=--*=*=*=--*=*=*=--*=*=*=--*=*=*=--*=*=*",
"                                                                     ",
"o................................++++++++..........................X.",
"O.........................++++.............+++++++++++++++++++++....o",
"O......++++++++++++++++++++++++++++++++++++++++++++++++++++++++++..oX",
"X......++++++++++++++++++++++++++++++++++++++++++++++++++++++++++..Xo",
"...++++++++++++++++++++++++++++++++++++++++++++++++++++++++++++++..oX",
"o..++++++++++++++++++++++++++++++++++++++++++++++++++++++++++++++..Xo",
"X..+++++++++++++++++++++++++++.++++++++++++++++;++++++++....+++++..oX",
"X..++++++++++;;;++++++++++++++.+++++++++++++++++++++++....+++++++..OX",
"o..++++++++++;;;++++++++++++++.+++++++++++++++++++++++....+++++++..X.",
"O..+++++++++++++++++++++++++++++++++++++++++++++........+++++++++...o",
"O....++++++++++++++++++++++++++++++++++++++++++++++++++++++++++++..oX",
"X..++++++++++++++++++++++++++++++..++++++++++++++++++++++++++++++..Xo",
"...++++++++++++++++++++++++++++++..++++++++++++++++++++++++++++++..oX",
"o..+++++++++++++;;+++++++++++++++++++++++++++++++++++++++++++++++..Xo",
"X..+++++++++++++++++++++++++++++++++++++++++++++++++++++++++++++...++",
"X++++++++++++++++++++++++++++++++++++++++++++++;++++++++++++++++...OX",
"o++++..+++++++++++++++++++++++++++++++++++++++++++++++++++++++++...X.",
"O++++..+++++++++++++++++++++++++++++++++++++++++++++++++++++++++....o",
"O++..+++++++++++++++++++++++++++++++++++++++++++++++++++++++++.....oX",
"X++..++;;+++++++++++++++++++++++++++++++++++++++++++++++++++++.....Xo",
".++++++;;++++++++++++++++++++++++++++++++++....+..++++++++++++.....oX",
"o++++++..+++++++++..++++++++++++++++++++++++++++++++++++++++++.....Xo",
"X++++++..+++++++++..++++++++++++++++++++++++++++++++++++++++++.....oX",
"X+++++++++++++++++++++++++++++++++++++++++++++++++++++++++++++.....OX",
"o++..+++++++++++++++..+++++++++++++++++..+++++++++++++++++++++++...X.",
"O++++..++++++++++++++++++++++++++++++++..+++++++++++++++++++++++....o",
"O++++..+++++++++++++++++++++++++++++++++++++++++++++..+++++++++++..oX"
};
